; generated by PrusaSlicer 2.6.1+win64 on 2024-03-12 at 11:24:11 UTC


;
;

;
;

;
;
; 

; external perimeters extrusion width = 0.45mm
; perimeters extrusion width = 0.45mm
; infill extrusion width = 0.45mm
; solid infill extrusion width = 0.45mm
; top infill extrusion width = 0.40mm
; support material extrusion width = 0.37mm
; first layer extrusion width = 0.50mm

M73 P0 R22
M201 X2500 Y2500 Z200 E2500 ; sets maximum accelerations, mm/sec^2
M203 X200 Y200 Z40 E100 ; sets maximum feedrates, mm / sec
M204 P2000 R1200 T2000 ; sets acceleration (P, T) and retract acceleration (R), mm/sec^2
M205 X8.00 Y8.00 Z2.00 E10.00 ; sets the jerk limits, mm/sec
M205 S0 T0 ; sets the minimum extruding and travel feed rate, mm/sec
;TYPE:Custom
M17 ; enable steppers
M862.3 P "MK4" ; printer model check
M862.1 P0.4 ; nozzle diameter check
M555 X110.509 Y84.9986 W32 H43.0748

G90 ; use absolute coordinates
M83 ; extruder relative mode

M140 S60 ; set bed temp

M104 S170 ; set extruder temp for bed leveling
M109 R170 ; wait for temp


M84 E ; turn off E motor

G28 ; home all without mesh bed level

G1 X42 Y-4 Z5 F4800

M302 S160 ; lower cold extrusion limit to 160C


G1 E-2 F2400 ; retraction


M84 E ; turn off E motor

G29 P9 X10 Y-4 W32 H4

M106 S100

G0 Z40 F10000

M190 S60 ; wait for bed temp

M107

;
; MBL
;
M84 E ; turn off E motor
G29 P1 ; invalidate mbl & probe print area
G29 P1 X0 Y0 W50 H20 C ; probe near purge place
G29 P3.2 ; interpolate mbl probes
G29 P3.13 ; extrapolate mbl outside probe area
G29 A ; activate mbl

; prepare for purge
M104 S215
G0 X0 Y-4 Z15 F4800 ; move away and ready for the purge
M109 S215

G92 E0
M569 S0 E ; set spreadcycle mode for extruder

;
; Extrude purge line
;
G92 E0 ; reset extruder position
G1 E2 F2400 ; deretraction after the initial one before nozzle cleaning
G0 E7 X15 Z0.2 F500 ; purge
G0 X25 E4 F500 ; purge
G0 X35 E4 F650 ; purge
G0 X45 E4 F800 ; purge
G0 X48 Z0.05 F8000 ; wipe, move close to the bed
G0 X51 Z0.2 F8000 ; wipe, move quickly away from the bed

G92 E0
M221 S100 ; set flow to 100%
G21 ; set units to millimeters
G90 ; use absolute coordinates
M83 ; use relative distances for extrusion
M900 K0.05 ; Filament gcode



M142 S36 ; set heatbreak target temp
M107
;LAYER_CHANGE
;Z:0.2
;HEIGHT:0.2
;BEFORE_LAYER_CHANGE
G92 E0.0
;0.2


G1 E-.8 F2100
G1 Z.2 F720
;AFTER_LAYER_CHANGE
;0.2
; printing object bienert.stl id:0 copy 0
G1 Z.4
G1 X126.03 Y97.36 F12000
G1 Z.2 F720
G1 E.8 F1500
M204 P600
;TYPE:Support material
;WIDTH:0.5
G1 F1200
G1 X126.004 Y97.439 E.00316
G1 X126.019 Y97.612 E.0066
G1 X125.995 Y97.687 E.00299
G1 X126.018 Y97.956 E.01026
G1 X126.146 Y98.185 E.00997
G1 X126.589 Y98.512 E.02093
G1 X126.864 Y98.564 E.01064
G1 X127.109 Y98.497 E.00965
G1 X127.277 Y98.384 E.0077
G1 X127.537 Y98.042 E.01633
G1 X127.684 Y97.672 E.01513
G1 X127.673 Y97.753 E.00311
G1 X127.641 Y97.841 E.00356
G1 X127.619 Y98.006 E.00633
G1 X127.589 Y98.088 E.00332
G1 X127.567 Y98.252 E.00629
G1 X127.497 Y98.528 E.01082
G1 X127.479 Y98.665 E.00525
G1 X127.456 Y98.729 E.00258
G1 X127.355 Y99.325 E.02297
G1 X127.323 Y99.413 E.00356
G1 X127.316 Y99.557 E.00548
G1 X127.277 Y99.666 E.0044
G1 X127.279 Y99.795 E.0049
G1 X127.224 Y99.945 E.00607
G1 X127.217 Y100.111 E.00631
G1 X127.158 Y100.269 E.00641
G1 X127.151 Y100.446 E.00673
G1 X127.094 Y100.597 E.00613
G1 X127.087 Y100.787 E.00723
G1 X127.033 Y100.907 E.005
G1 X127.029 Y101.102 E.00741
G1 X126.975 Y101.192 E.00399
G1 X126.972 Y101.363 E.0065
G1 X126.92 Y101.449 E.00382
G1 X126.916 Y101.63 E.00688
G1 X126.868 Y101.712 E.00361
G1 X126.864 Y101.905 E.00734
G1 X126.818 Y101.983 E.00344
G1 X126.814 Y102.186 E.00772
G1 X126.771 Y102.26 E.00325
G1 X126.767 Y102.475 E.00817
G1 X126.728 Y102.545 E.00305
G1 X126.725 Y102.703 E.00601
G1 X126.687 Y102.773 E.00303
G1 X126.67 Y102.861 E.00341
G1 X126.641 Y103.149 E.011
G1 X126.415 Y103.446 E.01418
G1 X126.447 Y103.669 E.00856
G1 X126.372 Y103.767 E.00469
G1 X126.309 Y103.805 E.0028
G1 X126.247 Y103.8 E.00236
G1 X125.812 Y103.478 E.02057
G1 X125.788 Y103.436 E.00184
G1 X125.784 Y103.389 E.00179
G1 X125.835 Y103.228 E.00642
G1 X125.783 Y103.136 E.00402
G1 X125.773 Y103.02 E.00443
G1 X125.812 Y102.902 E.00472
G1 X125.779 Y102.843 E.00257
G1 X125.763 Y102.658 E.00706
G1 X125.779 Y102.609 E.00196
G1 X125.752 Y102.302 E.01171
G1 X125.769 Y102.253 E.00197
G1 X125.742 Y101.951 E.01152
G1 X125.758 Y101.902 E.00196
G1 X125.733 Y101.606 E.01129
G1 X125.749 Y101.557 E.00196
G1 X125.724 Y101.266 E.0111
G1 X125.74 Y101.217 E.00196
G1 X125.715 Y100.932 E.01087
G1 X125.731 Y100.882 E.002
G1 X125.707 Y100.604 E.01061
G1 X125.724 Y100.553 E.00204
G1 X125.71 Y100.388 E.00629
G1 X125.724 Y100.31 E.00301
G1 X125.712 Y100.173 E.00523
G1 X125.727 Y100.093 E.00309
G1 X125.716 Y99.963 E.00496
G1 X125.731 Y99.882 E.00313
G1 X125.721 Y99.76 E.00465
G1 X125.749 Y99.619 E.00546
G1 X125.736 Y99.506 E.00432
G1 X125.775 Y99.329 E.00689
G1 X125.763 Y99.223 E.00405
G1 X125.802 Y99.046 E.00689
G1 X125.791 Y98.947 E.00379
G1 X125.83 Y98.77 E.00689
G1 X125.82 Y98.677 E.00355
G1 X125.859 Y98.499 E.00693
G1 X125.851 Y98.413 E.00328
G1 X125.89 Y98.234 E.00696
G1 X125.882 Y98.156 E.00298
G1 X125.921 Y97.976 E.007
G1 X125.915 Y97.904 E.00275
G1 X125.954 Y97.724 E.007
G1 X125.948 Y97.659 E.00248
G1 X125.99 Y97.523 E.00541
G1 X125.991 Y97.425 E.00372
G1 X126.016 Y97.349 E.00304
M204 P1000
G1 X126.522 Y102.564 F12000
M204 P600
G1 F1200
G1 X126.522 Y98.709 E.14651
M204 P1000
G1 X125.474 Y98.087 F12000
M204 P600
;TYPE:Support material interface
;WIDTH:0.37
G1 F1200
G1 X125.501 Y97.961 E.0035
G1 X125.503 Y97.852 E.00296
G1 X125.519 Y97.776 E.00211
G1 X125.212 Y97.998 E.0103
G1 X125.463 Y98.249 E.00965
G1 X125.439 Y98.361 E.00312
G1 X125.439 Y98.484 E.00335
G1 X125.408 Y98.625 E.00393
G1 X125.41 Y98.754 E.00351
G1 X125.379 Y98.91 E.00433
G1 X124.984 Y98.515 E.01519
G1 X124.931 Y98.631 E.00347
G1 X125.013 Y98.789 E.00484
G1 X124.934 Y99.211 E.01168
G1 X125.329 Y99.605 E.01517
G1 X125.306 Y99.765 E.0044
G1 X125.314 Y99.855 E.00246
G1 X125.301 Y99.968 E.00309
G1 X125.31 Y100.066 E.00268
G1 X125.299 Y100.321 E.00694
G1 X124.773 Y99.795 E.02023
G1 X124.726 Y99.876 E.00255
G1 X124.636 Y99.942 E.00304
G1 X124.602 Y100.117 E.00485
G1 X124.582 Y100.35 E.00636
G1 X125.313 Y101.08 E.0281
G1 X125.32 Y101.169 E.00243
G1 X125.304 Y101.218 E.0014
G1 X125.329 Y101.509 E.00794
G1 X125.313 Y101.558 E.0014
G1 X125.339 Y101.852 E.00803
G1 X124.451 Y100.964 E.03415
G1 X124.453 Y101.113 E.00405
G1 X124.419 Y101.336 E.00613
G1 X124.407 Y101.551 E.00586
G1 X124.367 Y101.625 E.00229
G1 X125.346 Y102.604 E.03765
G1 X125.37 Y102.922 E.00867
G1 X125.354 Y102.972 E.00143
G1 X125.375 Y103.213 E.00658
M204 P1000
G1 E-.64 F2100
;WIPE_START
G1 F9600
G1 X125.354 Y102.972 E-.05027
G1 X125.37 Y102.922 E-.01091
G1 X125.346 Y102.604 E-.06627
G1 X125.235 Y102.493 E-.03255
;WIPE_END
G1 Z.4 F720
G1 X127.745 Y100.362 F12000
G1 Z.2 F720
G1 E.8 F1500
M204 P600
G1 F1200
G1 X127.761 Y100.056 E.00833
G1 X127.691 Y99.835 E.0063
G1 X127.636 Y100.025 E.00538
G1 X127.634 Y100.136 E.00302
G1 X127.617 Y100.224 E.00244
G1 X127.57 Y100.356 E.00381
G1 X127.74 Y100.525 E.00652
G1 X127.712 Y101.243 E.01954
G1 X127.455 Y100.986 E.00988
G1 X127.442 Y101.176 E.00518
G1 X127.386 Y101.335 E.00458
G1 X127.384 Y101.437 E.00277
G1 X127.331 Y101.607 E.00484
G1 X127.785 Y102.061 E.01746
G1 X127.882 Y102.33 E.00778
G1 X127.868 Y102.574 E.00665
G1 X127.873 Y102.895 E.00873
G1 X127.226 Y102.248 E.02488
G1 X127.182 Y102.386 E.00394
G1 X127.179 Y102.549 E.00443
G1 X127.139 Y102.665 E.00334
G1 X127.135 Y102.846 E.00492
G1 X127.121 Y102.888 E.0012
G1 X127.887 Y103.655 E.02948
G1 X127.894 Y104.071 E.01132
G1 X127.989 Y104.502 E.012
G1 X126.934 Y103.447 E.04058
G1 X126.849 Y103.559 E.00382
G1 X126.881 Y103.781 E.0061
G1 X126.726 Y103.984 E.00695
G1 X128.144 Y105.403 E.05456
G1 X128.201 Y106.204 E.02184
G1 X126.208 Y104.212 E.07664
G1 X126.095 Y104.202 E.00309
G1 X125.494 Y103.757 E.02034
G1 X125.384 Y103.561 E.00611
G1 X125.368 Y103.371 E.00519
G1 X124.148 Y102.152 E.0469
G1 X124.125 Y102.397 E.00669
G1 X124.091 Y102.58 E.00506
G1 X124.071 Y102.82 E.00655
G1 X128.272 Y107.021 E.16158
G1 X128.358 Y107.852 E.02272
G1 X124.001 Y103.496 E.16756
G1 X123.977 Y103.638 E.00392
G1 X123.969 Y103.846 E.00566
G1 X123.94 Y104.05 E.0056
G1 X123.892 Y104.132 E.00258
G1 X128.533 Y108.773 E.1785
G1 X128.556 Y108.843 E.002
G1 X128.695 Y109.093 E.00778
G1 X128.787 Y109.772 E.01864
G1 X123.712 Y104.698 E.19518
M73 P1 R22
G1 X123.715 Y104.839 E.00384
G1 X123.681 Y105.052 E.00587
G1 X123.669 Y105.342 E.00789
G1 X123.856 Y105.46 E.00601
G1 X123.98 Y105.71 E.00759
G1 X128.922 Y110.652 E.19008
G1 X129.073 Y111.549 E.02474
G1 X123.987 Y106.463 E.19562
G1 X123.928 Y107.149 E.01873
G1 X129.244 Y112.465 E.20446
G1 X129.353 Y113.112 E.01784
G1 X129.412 Y113.379 E.00744
G1 X123.867 Y107.834 E.21327
G1 X123.857 Y107.905 E.00195
G1 X123.86 Y108.098 E.00525
G1 X123.833 Y108.358 E.00711
G1 X123.836 Y108.548 E.00517
G1 X129.594 Y114.306 E.22146
G1 X129.645 Y114.49 E.00519
G1 X129.69 Y114.765 E.00758
G1 X129.76 Y115.012 E.00698
G1 X129.769 Y115.088 E.00208
M204 P1000
G1 E-.64 F2100
;WIPE_START
G1 F9600
G1 X129.76 Y115.012 E-.0159
G1 X129.69 Y114.765 E-.05335
G1 X129.645 Y114.49 E-.05791
G1 X129.603 Y114.338 E-.03284
;WIPE_END
G1 Z.4 F720
G1 X128.565 Y116.564 F12000
G1 Z.2 F720
G1 E.8 F1500
M204 P600
G1 F1200
G1 X128.509 Y116.514 E.00204
G1 X128.513 Y116.315 E.00541
G1 X128.429 Y116.123 E.0057
G1 X130.499 Y118.193 E.07962
G1 X130.553 Y118.334 E.00411
G1 X130.577 Y118.511 E.00486
G1 X130.647 Y118.777 E.00748
G1 X130.706 Y118.924 E.00431
G1 X130.723 Y119.064 E.00384
G1 X130.757 Y119.197 E.00373
M204 P1000
G1 X130.886 Y119.701 F12000
M204 P600
G1 F1200
G1 X130.863 Y119.511 E.00521
G1 X130.795 Y119.342 E.00495
G1 X130.757 Y119.197 E.00408
G1 X128.818 Y117.257 E.0746
G1 X128.803 Y117.197 E.00168
G1 X128.731 Y117.073 E.0039
G1 X128.674 Y117.018 E.00215
G1 X128.679 Y116.794 E.00609
G1 X128.639 Y116.703 E.0027
M204 P1000
G1 X128.851 Y117.417 F12000
M204 P600
G1 F1200
G1 X128.848 Y117.575 E.0043
G1 X128.877 Y117.604 E.00112
G1 X128.949 Y117.728 E.0039
G1 X129.025 Y118.018 E.00815
G1 X129.032 Y118.141 E.00335
G1 X129.111 Y118.296 E.00473
G1 X131.225 Y120.41 E.08131
G1 X131.312 Y120.566 E.00486
G1 X131.374 Y120.616 E.00217
G1 X131.38 Y120.695 E.00215
G1 X131.34 Y120.987 E.00802
G1 X131.357 Y121.287 E.00817
G1 X129.437 Y119.367 E.07385
G1 X129.384 Y119.266 E.0031
G1 X129.334 Y119.074 E.0054
M204 P1000
G1 X129.478 Y119.525 F12000
M204 P600
G1 F1200
G1 X129.549 Y119.797 E.00765
G1 X129.609 Y119.901 E.00327
G1 X129.743 Y120.419 E.01455
G1 X131.278 Y121.953 E.05902
G1 X131.175 Y122.34 E.01089
G1 X131.105 Y122.525 E.00538
G1 X129.851 Y121.271 E.04823
G1 X129.848 Y121.404 E.00362
G1 X129.831 Y121.492 E.00244
G1 X129.693 Y121.859 E.01066
G1 X130.867 Y123.033 E.04515
G1 X130.696 Y123.285 E.00828
G1 X130.553 Y123.464 E.00623
G1 X129.417 Y122.329 E.04367
G1 X129.089 Y122.746 E.01443
G1 X130.202 Y123.859 E.04281
G1 X130.054 Y124.003 E.00562
G1 X129.782 Y124.184 E.00889
G1 X128.655 Y123.057 E.04335
G1 X128.472 Y123.18 E.006
G1 X128.394 Y123.216 E.00234
G1 X128.138 Y123.285 E.00721
G1 X129.335 Y124.483 E.04606
G1 X129.225 Y124.557 E.00361
G1 X129.146 Y124.536 E.00222
G1 X128.844 Y124.685 E.00916
G1 X128.79 Y124.683 E.00147
G1 X127.418 Y123.312 E.05275
G1 X127.031 Y123.3 E.01053
M204 P1000
G1 E-.64 F2100
;WIPE_START
G1 F9600
G1 X127.418 Y123.312 E-.08046
G1 X127.689 Y123.583 E-.07954
;WIPE_END
G1 Z.4 F720
G1 X126.665 Y124.795 F12000
G1 Z.2 F720
G1 E.8 F1500
M204 P600
G1 F1200
G1 X123.809 Y121.938 E.10987
G1 X123.65 Y121.034 E.02496
G1 X127.438 Y124.822 E.14569
G1 X127.968 Y124.866 E.01446
G1 X128.166 Y124.804 E.00564
G1 X126.373 Y123.012 E.06894
G1 X125.713 Y122.571 E.02159
G1 X125.624 Y122.47 E.00366
G1 X125.411 Y122.05 E.01281
G1 X123.625 Y120.263 E.06871
G1 X123.634 Y120.096 E.00455
G1 X123.619 Y119.848 E.00676
G1 X123.602 Y119.751 E.00268
G1 X123.616 Y119.509 E.00659
G1 X125.142 Y121.035 E.05869
G1 X125.124 Y120.828 E.00565
G1 X125.129 Y120.749 E.00215
G1 X125.186 Y120.49 E.00721
G1 X125.171 Y120.319 E.00467
G1 X123.592 Y118.74 E.06073
G1 X123.572 Y118.561 E.0049
G1 X123.587 Y118.299 E.00714
G1 X123.56 Y117.963 E.00917
G1 X125.196 Y119.599 E.06292
G1 X125.176 Y119.369 E.00628
G1 X125.181 Y119.29 E.00215
G1 X125.233 Y119.053 E.0066
G1 X125.218 Y118.875 E.00486
G1 X123.558 Y117.215 E.06385
G1 X123.552 Y116.952 E.00715
G1 X123.538 Y116.836 E.00318
G1 X123.555 Y116.624 E.00578
G1 X123.548 Y116.46 E.00446
G1 X125.236 Y118.148 E.06492
G1 X125.222 Y117.99 E.00431
G1 X125.284 Y117.8 E.00544
G1 X125.257 Y117.485 E.0086
G1 X125.272 Y117.438 E.00134
G1 X123.526 Y115.692 E.06715
G1 X123.538 Y115.35 E.00931
G1 X123.522 Y115.169 E.00494
G1 X123.537 Y114.957 E.00578
G1 X125.341 Y116.762 E.0694
G1 X125.317 Y116.485 E.00756
G1 X125.372 Y116.317 E.00481
G1 X125.346 Y116.021 E.00808
G1 X123.53 Y114.205 E.06985
G1 X123.539 Y113.469 E.02002
G1 X125.416 Y115.346 E.07219
G1 X125.388 Y115.009 E.0092
G1 X125.436 Y114.861 E.00423
G1 X125.413 Y114.598 E.00718
G1 X123.548 Y112.733 E.07173
G1 X123.547 Y112.313 E.01142
G1 X123.635 Y112.074 E.00693
G1 X125.468 Y113.907 E.0705
G1 X125.438 Y113.564 E.00936
G1 X125.498 Y113.379 E.00529
G1 X125.471 Y113.33 E.00152
G1 X125.455 Y113.149 E.00494
G1 X123.762 Y111.456 E.06512
G1 X123.746 Y111.189 E.00727
G1 X123.76 Y110.942 E.00673
G1 X123.753 Y110.701 E.00656
G1 X125.713 Y112.661 E.07539
G1 X125.993 Y112.34 E.01158
G1 X126.123 Y112.325 E.00356
G1 X123.774 Y109.977 E.09033
G1 X123.77 Y109.752 E.00612
G1 X123.789 Y109.562 E.00519
G1 X123.794 Y109.252 E.00843
G1 X129.792 Y115.249 E.23068
G1 X129.88 Y115.559 E.00876
G1 X129.903 Y115.75 E.00523
G1 X129.975 Y116.028 E.00781
G1 X130.005 Y116.101 E.00215
G1 X130.019 Y116.222 E.00331
G1 X127.819 Y114.022 E.08462
G1 X127.816 Y114.178 E.00424
G1 X127.849 Y114.208 E.00121
G1 X127.942 Y114.419 E.00627
G1 X127.937 Y114.642 E.00607
G1 X127.979 Y114.679 E.00152
G1 X128.071 Y114.889 E.00624
G1 X128.068 Y115.017 E.00348
G1 X130.27 Y117.219 E.08469
G1 X130.287 Y117.355 E.00373
G1 X130.351 Y117.615 E.00728
G1 X130.408 Y117.763 E.00431
G1 X130.428 Y117.919 E.00428
G1 X130.457 Y118.035 E.00325
M204 P1000
G1 E-.64 F2100
;WIPE_START
G1 F9600
G1 X130.428 Y117.919 E-.02485
G1 X130.408 Y117.763 E-.03268
G1 X130.351 Y117.615 E-.03296
G1 X130.287 Y117.355 E-.05564
G1 X130.279 Y117.289 E-.01387
;WIPE_END
G1 Z.4 F720
G1 X128.756 Y118.573 F12000
G1 Z.2 F720
G1 E.8 F1500
M204 P600
;TYPE:Support material
;WIDTH:0.5
G1 F1200
G1 X128.808 Y118.774 E.00789
G1 X128.808 Y118.883 E.00414
G1 X128.878 Y118.963 E.00404
G1 X128.998 Y119.425 E.01814
G1 X129.046 Y119.508 E.00364
M73 P1 R21
G1 X129.174 Y120.001 E.01936
G1 X129.223 Y120.059 E.00289
G1 X129.442 Y120.905 E.03321
G1 X129.432 Y121.379 E.01802
G1 X129.245 Y121.875 E.02015
G1 X128.776 Y122.475 E.02894
G1 X128.253 Y122.826 E.02394
G1 X127.922 Y122.913 E.01301
G1 X126.941 Y122.883 E.0373
G1 X126.911 Y122.874 E.00119
G1 X125.969 Y122.235 E.04326
G1 X125.597 Y121.491 E.03161
G1 X125.539 Y120.824 E.02545
G1 X125.603 Y120.513 E.01207
G1 X125.825 Y120.47 E.00859
G1 X125.769 Y120.641 E.00684
G1 X125.861 Y121.696 E.04025
G1 X125.989 Y121.925 E.00997
G1 X127.073 Y122.728 E.05127
G1 X127.348 Y122.78 E.01064
G1 X128.322 Y122.516 E.03835
G1 X128.489 Y122.403 E.00766
G1 X129.114 Y121.581 E.03925
G1 X129.178 Y121.398 E.00737
G1 X129.197 Y120.473 E.03516
G1 X129.089 Y120.228 E.01018
G1 X128.968 Y120.12 E.00616
G1 X128.97 Y119.984 E.00517
G1 X128.863 Y119.739 E.01016
G1 X128.752 Y119.64 E.00565
G1 X128.755 Y119.497 E.00544
G1 X128.663 Y119.287 E.00871
G1 X128.597 Y118.527 E.02899
G1 X128.733 Y118.515 E.00519
M204 P1000
G1 E-.64 F2100
;WIPE_START
G1 F9600
G1 X128.597 Y118.527 E-.02837
G1 X128.652 Y119.158 E-.13163
;WIPE_END
G1 Z.4 F720
G1 X134.501 Y119.393 F12000
G1 Z.2 F720
G1 E.8 F1500
M204 P600
G1 F1200
G1 X134.275 Y121.032 E.06288
G1 X134.385 Y121.463 E.01691
G1 X134.131 Y123.303 E.07059
G1 X133.642 Y124.152 E.03724
G1 X133.528 Y124.414 E.01086
G1 X133.281 Y124.777 E.01669
G1 X132.936 Y125.376 E.02627
